X: 9310
T: Dances At Kinvara, The
R: barndance
M: 4/4
K: Gmajor
|:(3DEF G2 B2 BdBG|c2 D2 F3G|FGAB cdef|gfaf gd^cd|
B2G2 GBcB|c2 D2 F3G|FGAB cAFA|1 G2 GF G2:|2 G2 GF G4||
|:B4 cB c2|d2 b2 b2 (3efg|agfe dcBA|G2 g2 g2 (3def|
g2 dB e2 cA|d2 BG c2 AG|FGAB cAFA|1 G2 GF G4:|2 G2 GF G2||

